src/assets/outline/KyberNetwork.svg

<svg width="24" height="24" viewBox="0 0 24 24"  xmlns="http://www.w3.org/2000/svg">
<path d="M12 22.2908C11.44 22.2908 10.88 22.1208 10.4 21.7808L5.40002 18.2108C4.68002 17.7008 4.25 16.8608 4.25 15.9708V7.16078C4.25 6.18078 4.78001 5.26078 5.64001 4.77078L10.64 1.91078C11.48 1.43078 12.53 1.43078 13.37 1.91078L18.37 4.77078C19.22 5.26078 19.76 6.17078 19.76 7.16078V15.9708C19.76 16.8608 19.33 17.6908 18.61 18.2108L13.61 21.7808C13.12 22.1208 12.56 22.2908 12 22.2908ZM11.38 3.22078L6.38 6.08078C5.99 6.30078 5.75 6.72078 5.75 7.16078V15.9708C5.75 16.3708 5.95002 16.7508 6.27002 16.9908L11.27 20.5608C11.71 20.8708 12.29 20.8708 12.72 20.5608L17.72 16.9908C18.05 16.7608 18.24 16.3808 18.24 15.9708V7.16078C18.24 6.71078 18 6.30078 17.61 6.08078L12.61 3.22078C12.24 3.00078 11.76 3.00078 11.38 3.22078Z" />
<path d="M11.8498 21.9798C11.4998 21.9798 11.1899 21.7298 11.1199 21.3798L9.26988 12.1498C9.24988 12.0498 9.24988 11.9398 9.26988 11.8398L11.2699 2.83978C11.3599 2.43978 11.7498 2.17978 12.1698 2.26979C12.5698 2.35979 12.8299 2.75978 12.7399 3.15978L10.7699 12.0098L12.5899 21.0898C12.6699 21.4998 12.4099 21.8898 11.9999 21.9698C11.9399 21.9798 11.8898 21.9798 11.8498 21.9798Z" />
<path d="M18.16 17.6598C18.03 17.6598 17.9 17.6298 17.77 17.5498L9.61 12.6398C9.38 12.4998 9.24001 12.2498 9.25001 11.9798C9.25001 11.7098 9.40003 11.4698 9.64003 11.3398L18.18 6.59976C18.54 6.39976 19 6.52976 19.2 6.88976C19.4 7.24976 19.27 7.70976 18.91 7.90976L11.5 12.0198L18.55 16.2598C18.9 16.4698 19.02 16.9298 18.81 17.2898C18.66 17.5298 18.42 17.6598 18.16 17.6598Z" />
</svg>

<?xml version="1.0" encoding="UTF-8"?>
<svg width="24" height="24" viewBox="0 0 24 24" xmlns="http://www.w3.org/2000/svg">
 <path d="m12 22.291c-0.56 0-1.12-0.17-1.6-0.51l-5-3.57c-0.72-0.51-1.15-1.35-1.15-2.24v-8.81c0-0.98 0.53001-1.9 1.39-2.39l5-2.86c0.84-0.48 1.89-0.48 2.73 0l5 2.86c0.85 0.49 1.39 1.4 1.39 2.39v8.81c0 0.89-0.43 1.72-1.15 2.24l-5 3.57c-0.49 0.34-1.05 0.51-1.61 0.51zm-0.62-19.07-5 2.86c-0.39 0.22-0.63 0.64-0.63 1.08v8.81c0 0.4 0.20002 0.78 0.52002 1.02l5 3.57c0.44 0.31 1.02 0.31 1.45 0l5-3.57c0.33-0.23 0.52-0.61 0.52-1.02v-8.81c0-0.45-0.24-0.86-0.63-1.08l-5-2.86c-0.37-0.22-0.85-0.22-1.23 0z"/>
 <path d="m11.85 21.98c-0.35 0-0.6599-0.25-0.7299-0.6l-1.85-9.23c-0.02-0.1-0.02-0.21 0-0.31l2-9c0.09-0.4 0.4799-0.66 0.8999-0.56999 0.4 0.09 0.6601 0.48999 0.5701 0.88999l-1.97 8.85 1.82 9.08c0.08 0.41-0.18 0.8-0.59 0.88-0.06 0.01-0.1101 0.01-0.1501 0.01z"/>
 <path d="m18.16 17.66c-0.13 0-0.26-0.03-0.39-0.11l-8.16-4.91c-0.23-0.14-0.36999-0.39-0.35999-0.66 0-0.27 0.15002-0.51 0.39002-0.64l8.54-4.74c0.36-0.2 0.82-0.07 1.02 0.29s0.07 0.82-0.29 1.02l-7.41 4.11 7.05 4.24c0.35 0.21 0.47 0.67 0.26 1.03-0.15 0.24-0.39 0.37-0.65 0.37z"/>
</svg>
